swiss/communes/0354.svg

<?xml version="1.0" encoding="UTF-8" standalone="no"?>
<svg
   xmlns:dc="http://purl.org/dc/elements/1.1/"
   xmlns:cc="http://web.resource.org/cc/"
   xmlns:rdf="http://www.w3.org/1999/02/22-rdf-syntax-ns#"
   xmlns:svg="http://www.w3.org/2000/svg"
   xmlns="http://www.w3.org/2000/svg"
   xmlns:xlink="http://www.w3.org/1999/xlink"
   xmlns:sodipodi="http://sodipodi.sourceforge.net/DTD/sodipodi-0.dtd"
   xmlns:inkscape="http://www.inkscape.org/namespaces/inkscape"
   height="763"
   width="603"
   version="1.0"
   id="svg20"
   sodipodi:version="0.32"
   inkscape:version="0.44.1"
   sodipodi:docname="Kirchlindach-coat of arms.svg"
   sodipodi:docbase="F:\MIS DOCUMENTOS\Mis imágenes\Encyclopédie\Escudos de Suiza">
  <metadata
     id="metadata31">
    <rdf:RDF>
      <cc:Work
         rdf:about="">
        <dc:format>image/svg+xml</dc:format>
        <dc:type
           rdf:resource="http://purl.org/dc/dcmitype/StillImage" />
        <dc:date>07-AUG-2006</dc:date>
        <dc:creator>
          <cc:Agent>
            <dc:title>Jérôme BLUM (wagner51)</dc:title>
          </cc:Agent>
        </dc:creator>
        <cc:license
           rdf:resource="http://creativecommons.org/licenses/GPL/2.0/" />
        <dc:coverage />
        <dc:description>Gabarit pour le Projet:Blasons de WIkipédia</dc:description>
        <dc:subject>
          <rdf:Bag>
            <rdf:li>blason suisse modèle gabarit projet blasons</rdf:li>
          </rdf:Bag>
        </dc:subject>
        <dc:language>fr</dc:language>
        <dc:title>Gabrit d'un blason suisse</dc:title>
      </cc:Work>
      <cc:License
         rdf:about="http://creativecommons.org/licenses/GPL/2.0/">
        <cc:permits
           rdf:resource="http://web.resource.org/cc/Reproduction" />
        <cc:permits
           rdf:resource="http://web.resource.org/cc/Distribution" />
        <cc:requires
           rdf:resource="http://web.resource.org/cc/Notice" />
        <cc:permits
           rdf:resource="http://web.resource.org/cc/DerivativeWorks" />
        <cc:requires
           rdf:resource="http://web.resource.org/cc/ShareAlike" />
        <cc:requires
           rdf:resource="http://web.resource.org/cc/SourceCode" />
      </cc:License>
    </rdf:RDF>
  </metadata>
  <defs
     id="defs29">
    <linearGradient
       id="linearGradient2893">
      <stop
         style="stop-color:#ffffff;stop-opacity:0.3137255;"
         offset="0"
         id="stop2895" />
      <stop
         id="stop2897"
         offset="0.19"
         style="stop-color:#ffffff;stop-opacity:0.25098041;" />
      <stop
         style="stop-color:#6b6b6b;stop-opacity:0.1254902;"
         offset="0.60000002"
         id="stop2901" />
      <stop
         style="stop-color:#000000;stop-opacity:0.1254902;"
         offset="1"
         id="stop2899" />
    </linearGradient>
    <linearGradient
       id="linearGradient2955">
      <stop
         style="stop-color:white;stop-opacity:0;"
         offset="0"
         id="stop2965" />
      <stop
         style="stop-color:black;stop-opacity:0.64583331;"
         offset="1"
         id="stop2959" />
    </linearGradient>
    <radialGradient
       inkscape:collect="always"
       xlink:href="#linearGradient2893"
       id="radialGradient3236"
       gradientUnits="userSpaceOnUse"
       gradientTransform="matrix(1.215027,1.531577e-24,1.464684e-23,1.266667,-839.1924,-490.4894)"
       cx="858.04236"
       cy="579.93323"
       fx="858.04236"
       fy="579.93323"
       r="300" />
  </defs>
  <sodipodi:namedview
     inkscape:window-height="682"
     inkscape:window-width="1024"
     inkscape:pageshadow="2"
     inkscape:pageopacity="0.0"
     guidetolerance="10.0"
     gridtolerance="10.0"
     objecttolerance="10.0"
     borderopacity="1.0"
     bordercolor="#666666"
     pagecolor="#ffffff"
     id="base"
     inkscape:zoom="0.34154592"
     inkscape:cx="313.83313"
     inkscape:cy="274.31517"
     inkscape:window-x="-4"
     inkscape:window-y="-4"
     inkscape:current-layer="layer2"
     showgrid="true" />
  <desc
     id="desc22">Coat of Arms of Canton of Freiburg (Fribourg)</desc>
  <g
     inkscape:groupmode="layer"
     id="layer1"
     inkscape:label="Fond écu"
     sodipodi:insensitive="true">
    <path
       id="path1899"
       d="M 1.5,1.49998 L 1.5,460.3679 C 1.5,626.6785 135.81456,761.5 301.49999,761.5 C 467.18543,761.5 601.5,626.6785 601.5,460.3679 L 601.5,1.49998 L 1.5,1.49998 z "
       style="fill:white;fill-opacity:1" />
    <rect
       style="opacity:1;fill:#e20909;fill-opacity:1;fill-rule:evenodd;stroke:black;stroke-width:2.99999928;stroke-linecap:round;stroke-linejoin:round;stroke-miterlimit:4;stroke-dasharray:none;stroke-opacity:1"
       id="rect5512"
       width="599.99982"
       height="179.76563"
       x="1.4999996"
       y="291.73438" />
  </g>
  <g
     inkscape:groupmode="layer"
     id="layer2"
     inkscape:label="Meubles">
    <g
       id="g5505"
       transform="translate(0,14.99969)">
      <path
         sodipodi:nodetypes="ccccccccccccccc"
         id="path1939"
         d="M 302.24332,474.50048 C 287.17366,487.73205 272.72933,497.96141 259.61889,520.98918 L 246.78827,506.34117 C 230.28537,525.20845 224.2267,541.05086 219.57069,557.94367 L 205.45193,545.88709 C 192.68522,567.02451 185.22418,579.0608 186.68309,598.5481 L 174.13235,585.16124 C 164.19017,733.11852 310.60798,679.57553 304.30551,667.0634 C 341.45153,696.94946 426.89066,713.73704 427.02285,582.07914 L 409.84894,595.98359 C 410.38597,575.50362 403.3769,555.32369 395.70327,543.05439 L 379.27296,555.65904 C 374.15025,532.07811 364.44845,519.64656 355.38684,507.8822 L 342.80915,520.45994 C 333.88599,499.00844 316.86775,488.35035 302.24332,474.50048 z "
         style="fill:#5ab532;fill-opacity:1;fill-rule:evenodd;stroke:black;stroke-width:3;stroke-linecap:butt;stroke-linejoin:miter;stroke-miterlimit:4;stroke-dasharray:none;stroke-opacity:1" />
      <path
         sodipodi:nodetypes="ccc"
         id="path2828"
         d="M 174.52586,586.64028 C 217.01465,633.53077 261.60746,640.44498 305.32542,663.9813 C 356.99156,639.21877 381.19835,621.47457 413.72138,592.60994"
         style="fill:none;fill-opacity:0.75;fill-rule:evenodd;stroke:black;stroke-width:3;stroke-linecap:butt;stroke-linejoin:miter;stroke-miterlimit:4;stroke-dasharray:none;stroke-opacity:1" />
      <path
         style="fill:none;fill-opacity:0.75;fill-rule:evenodd;stroke:black;stroke-width:3;stroke-linecap:butt;stroke-linejoin:miter;stroke-miterlimit:4;stroke-dasharray:none;stroke-opacity:1"
         d="M 206.22244,548.03559 C 239.25674,574.97319 272.29108,590.15646 305.32542,605.03171 C 334.76396,585.25278 352.29824,577.8718 381.73679,554.28161"
         id="path3715"
         sodipodi:nodetypes="ccc" />
      <path
         sodipodi:nodetypes="ccc"
         id="path3717"
         d="M 247.05994,506.80793 C 261.98308,525.8976 280.84113,539.74069 305.32542,546.08212 C 319.6836,536.76438 331.76701,532.99565 355.88564,508.349"
         style="fill:none;fill-opacity:0.75;fill-rule:evenodd;stroke:black;stroke-width:3;stroke-linecap:butt;stroke-linejoin:miter;stroke-miterlimit:4;stroke-dasharray:none;stroke-opacity:1" />
      <path
         sodipodi:nodetypes="cccc"
         id="path3719"
         d="M 304.31363,516.60733 C 302.96925,591.48026 302.10745,667.81202 281.1899,731.50031 L 328.74517,731.1426 C 310.47185,667.4263 308.40053,591.67273 304.31363,516.60733 z "
         style="fill:#5ab532;fill-opacity:1;fill-rule:evenodd;stroke:black;stroke-width:3;stroke-linecap:butt;stroke-linejoin:miter;stroke-miterlimit:4;stroke-dasharray:none;stroke-opacity:1" />
    </g>
    <g
       id="g6399"
       transform="translate(142.0003,-456.0003)">
      <path
         style="fill:#5ab532;fill-opacity:1;fill-rule:evenodd;stroke:black;stroke-width:3;stroke-linecap:butt;stroke-linejoin:miter;stroke-miterlimit:4;stroke-dasharray:none;stroke-opacity:1"
         d="M 302.24332,474.50048 C 287.17366,487.73205 272.72933,497.96141 259.61889,520.98918 L 246.78827,506.34117 C 230.28537,525.20845 224.2267,541.05086 219.57069,557.94367 L 205.45193,545.88709 C 192.68522,567.02451 185.22418,579.0608 186.68309,598.5481 L 174.13235,585.16124 C 164.09596,733.11852 303.52422,679.57553 304.30551,667.0634 C 341.45153,696.94946 426.89066,713.73704 427.02285,582.07914 L 409.84894,595.98359 C 410.38597,575.50362 403.3769,555.32369 395.70327,543.05439 L 379.27296,555.65904 C 374.15025,532.07811 364.44845,519.64656 355.38684,507.8822 L 342.80915,520.45994 C 333.88599,499.00844 316.86775,488.35035 302.24332,474.50048 z "
         id="path6401"
         sodipodi:nodetypes="ccccccccccccccc" />
      <path
         style="fill:none;fill-opacity:0.75;fill-rule:evenodd;stroke:black;stroke-width:3;stroke-linecap:butt;stroke-linejoin:miter;stroke-miterlimit:4;stroke-dasharray:none;stroke-opacity:1"
         d="M 174.52586,586.64028 C 217.01465,633.53077 261.60746,640.44498 305.32542,663.9813 C 356.99156,639.21877 381.19835,621.47457 413.72138,592.60994"
         id="path6403"
         sodipodi:nodetypes="ccc" />
      <path
         sodipodi:nodetypes="ccc"
         id="path6405"
         d="M 206.22244,548.03559 C 239.25674,574.97319 272.29108,590.15646 305.32542,605.03171 C 334.76396,585.25278 352.29824,577.8718 381.73679,554.28161"
         style="fill:none;fill-opacity:0.75;fill-rule:evenodd;stroke:black;stroke-width:3;stroke-linecap:butt;stroke-linejoin:miter;stroke-miterlimit:4;stroke-dasharray:none;stroke-opacity:1" />
      <path
         style="fill:none;fill-opacity:0.75;fill-rule:evenodd;stroke:black;stroke-width:3;stroke-linecap:butt;stroke-linejoin:miter;stroke-miterlimit:4;stroke-dasharray:none;stroke-opacity:1"
         d="M 247.05994,506.80793 C 261.98308,525.8976 280.84113,539.74069 305.32542,546.08212 C 319.6836,536.76438 331.76701,532.99565 355.88564,508.349"
         id="path6407"
         sodipodi:nodetypes="ccc" />
      <path
         style="fill:#5ab532;fill-opacity:1;fill-rule:evenodd;stroke:black;stroke-width:3;stroke-linecap:butt;stroke-linejoin:miter;stroke-miterlimit:4;stroke-dasharray:none;stroke-opacity:1"
         d="M 304.31363,516.60733 C 302.96925,591.48026 302.10745,667.81202 281.1899,731.50031 L 328.74517,731.1426 C 310.47185,667.4263 308.40053,591.67273 304.31363,516.60733 z "
         id="path6409"
         sodipodi:nodetypes="cccc" />
    </g>
    <g
       id="g6439">
      <path
         sodipodi:nodetypes="ccccccccccccccc"
         id="path6413"
         d="M 159.57362,18.50048 C 144.50396,31.73205 130.05963,41.96141 116.94919,64.98918 L 104.11857,50.34117 C 87.61567,69.20845 81.557,85.05086 76.90099,101.94367 L 62.78223,89.88709 C 50.01552,111.02451 42.55448,123.0608 44.01339,142.5481 L 31.46265,129.16124 C 21.25131,277.13159 161.93637,227.31729 161.63581,211.0634 C 198.78183,240.94946 284.22096,257.73704 284.35315,126.07914 L 267.17924,139.98359 C 267.71627,119.50362 260.7072,99.32369 253.03357,87.05439 L 236.60326,99.65904 C 231.48055,76.07811 221.77875,63.64656 212.71714,51.8822 L 200.13945,64.45994 C 191.21629,43.00844 174.19805,32.35035 159.57362,18.50048 z "
         style="fill:#5ab532;fill-opacity:1;fill-rule:evenodd;stroke:black;stroke-width:3;stroke-linecap:butt;stroke-linejoin:miter;stroke-miterlimit:4;stroke-dasharray:none;stroke-opacity:1" />
      <path
         sodipodi:nodetypes="ccc"
         id="path6415"
         d="M 31.85616,130.64028 C 74.34495,177.53077 118.93776,184.44498 162.65572,207.9813 C 214.32186,183.21877 238.52865,165.47457 271.05168,136.60994"
         style="fill:none;fill-opacity:0.75;fill-rule:evenodd;stroke:black;stroke-width:3;stroke-linecap:butt;stroke-linejoin:miter;stroke-miterlimit:4;stroke-dasharray:none;stroke-opacity:1" />
      <path
         style="fill:none;fill-opacity:0.75;fill-rule:evenodd;stroke:black;stroke-width:3;stroke-linecap:butt;stroke-linejoin:miter;stroke-miterlimit:4;stroke-dasharray:none;stroke-opacity:1"
         d="M 63.55274,92.03559 C 96.58704,118.97319 129.62138,134.15646 162.65572,149.03171 C 192.09426,129.25278 209.62854,121.8718 239.06709,98.28161"
         id="path6417"
         sodipodi:nodetypes="ccc" />
      <path
         sodipodi:nodetypes="ccc"
         id="path6419"
         d="M 104.39024,50.80793 C 119.31338,69.8976 138.17143,83.74069 162.65572,90.08212 C 177.0139,80.76438 189.09731,76.99565 213.21594,52.349"
         style="fill:none;fill-opacity:0.75;fill-rule:evenodd;stroke:black;stroke-width:3;stroke-linecap:butt;stroke-linejoin:miter;stroke-miterlimit:4;stroke-dasharray:none;stroke-opacity:1" />
      <path
         sodipodi:nodetypes="cccc"
         id="path6421"
         d="M 161.64393,60.60733 C 160.29955,135.48026 159.43775,211.81202 138.5202,275.50031 L 186.07547,275.1426 C 167.80215,211.4263 165.73083,135.67273 161.64393,60.60733 z "
         style="fill:#5ab532;fill-opacity:1;fill-rule:evenodd;stroke:black;stroke-width:3;stroke-linecap:butt;stroke-linejoin:miter;stroke-miterlimit:4;stroke-dasharray:none;stroke-opacity:1" />
    </g>
  </g>
  <g
     inkscape:groupmode="layer"
     id="layer3"
     inkscape:label="Reflet final"
     style="display:inline"
     sodipodi:insensitive="true">
    <path
       style="fill:url(#radialGradient3236);fill-opacity:1"
       d="M 1.5,1.5 L 1.5,460.3679 C 1.5,626.67854 135.81454,761.5 301.49993,761.5 C 467.1854,761.5 601.5,626.67854 601.5,460.3679 L 601.5,1.5 L 1.5,1.5 z "
       id="path2346" />
  </g>
  <g
     inkscape:groupmode="layer"
     id="layer4"
     inkscape:label="Contour final"
     style="display:inline"
     sodipodi:insensitive="true">
    <path
       style="fill:none;fill-opacity:1;stroke:#000000;stroke-width:3;stroke-miterlimit:4;stroke-dasharray:none;stroke-opacity:1"
       d="M 1.5,1.5 L 1.5,460.36794 C 1.5,626.67854 135.81454,761.5 301.49993,761.5 C 467.1854,761.5 601.5,626.67854 601.5,460.36794 L 601.5,1.5 L 1.5,1.5 z "
       id="path3239" />
  </g>
</svg>

<svg xmlns="http://www.w3.org/2000/svg" xmlns:xlink="http://www.w3.org/1999/xlink" height="763" width="603" version="1.0"><defs><radialGradient xlink:href="#a" id="b" gradientUnits="userSpaceOnUse" gradientTransform="matrix(1.21503 0 0 1.26667 -839.192 -490.49)" cx="858.042" cy="579.933" fx="858.042" fy="579.933" r="300"/><linearGradient id="a"><stop style="stop-color:#fff;stop-opacity:.3137255" offset="0"/><stop offset=".19" style="stop-color:#fff;stop-opacity:.25098041"/><stop style="stop-color:#6b6b6b;stop-opacity:.1254902" offset=".6"/><stop style="stop-color:#000;stop-opacity:.1254902" offset="1"/></linearGradient></defs><path d="M1.5 1.5v458.868c0 166.31 134.315 301.132 300 301.132s300-134.822 300-301.132V1.5H1.5z" style="fill:#fff;fill-opacity:1"/><path style="opacity:1;fill:#e20909;fill-opacity:1;fill-rule:evenodd;stroke:#000;stroke-width:2.99999928;stroke-linecap:round;stroke-linejoin:round;stroke-miterlimit:4;stroke-dasharray:none;stroke-opacity:1" d="M1.5 291.734h600V471.5H1.5z"/><path d="M302.243 474.5c-15.07 13.232-29.514 23.461-42.624 46.49l-12.83-14.649c-16.504 18.867-22.562 34.71-27.218 51.603l-14.12-12.057c-12.766 21.138-20.227 33.174-18.768 52.661l-12.55-13.387c-9.943 147.958 136.475 94.415 130.173 81.902 37.146 29.886 122.585 46.674 122.717-84.984l-17.174 13.905c.537-20.48-6.472-40.66-14.146-52.93l-16.43 12.605c-5.123-23.58-14.825-36.012-23.886-47.777l-12.578 12.578c-8.923-21.452-25.941-32.11-40.566-45.96z" style="fill:#5ab532;fill-opacity:1;fill-rule:evenodd;stroke:#000;stroke-width:3;stroke-linecap:butt;stroke-linejoin:miter;stroke-miterlimit:4;stroke-dasharray:none;stroke-opacity:1" transform="translate(0 15)"/><path d="M174.526 586.64c42.489 46.89 87.081 53.805 130.8 77.341 51.666-24.762 75.872-42.506 108.395-71.371" style="fill:none;fill-opacity:.75;fill-rule:evenodd;stroke:#000;stroke-width:3;stroke-linecap:butt;stroke-linejoin:miter;stroke-miterlimit:4;stroke-dasharray:none;stroke-opacity:1" transform="translate(0 15)"/><path style="fill:none;fill-opacity:.75;fill-rule:evenodd;stroke:#000;stroke-width:3;stroke-linecap:butt;stroke-linejoin:miter;stroke-miterlimit:4;stroke-dasharray:none;stroke-opacity:1" d="M206.222 548.036c33.035 26.937 66.07 42.12 99.103 56.996 29.439-19.78 46.973-27.16 76.412-50.75M247.06 506.808c14.923 19.09 33.781 32.933 58.265 39.274 14.359-9.318 26.442-13.086 50.56-37.733" transform="translate(0 15)"/><path d="M304.314 516.607c-1.345 74.873-2.207 151.205-23.124 214.893l47.555-.357c-18.273-63.717-20.344-139.47-24.431-214.536z" style="fill:#5ab532;fill-opacity:1;fill-rule:evenodd;stroke:#000;stroke-width:3;stroke-linecap:butt;stroke-linejoin:miter;stroke-miterlimit:4;stroke-dasharray:none;stroke-opacity:1" transform="translate(0 15)"/><g><path style="fill:#5ab532;fill-opacity:1;fill-rule:evenodd;stroke:#000;stroke-width:3;stroke-linecap:butt;stroke-linejoin:miter;stroke-miterlimit:4;stroke-dasharray:none;stroke-opacity:1" d="M302.243 474.5c-15.07 13.232-29.514 23.461-42.624 46.49l-12.83-14.649c-16.504 18.867-22.562 34.71-27.218 51.603l-14.12-12.057c-12.766 21.138-20.227 33.174-18.768 52.661l-12.55-13.387c-10.037 147.958 129.391 94.415 130.173 81.902 37.146 29.886 122.585 46.674 122.717-84.984l-17.174 13.905c.537-20.48-6.472-40.66-14.146-52.93l-16.43 12.605c-5.123-23.58-14.825-36.012-23.886-47.777l-12.578 12.578c-8.923-21.452-25.941-32.11-40.566-45.96z" transform="translate(142 -456)"/><path style="fill:none;fill-opacity:.75;fill-rule:evenodd;stroke:#000;stroke-width:3;stroke-linecap:butt;stroke-linejoin:miter;stroke-miterlimit:4;stroke-dasharray:none;stroke-opacity:1" d="M174.526 586.64c42.489 46.89 87.081 53.805 130.8 77.341 51.666-24.762 75.872-42.506 108.395-71.371" transform="translate(142 -456)"/><path d="M206.222 548.036c33.035 26.937 66.07 42.12 99.103 56.996 29.439-19.78 46.973-27.16 76.412-50.75M247.06 506.808c14.923 19.09 33.781 32.933 58.265 39.274 14.359-9.318 26.442-13.086 50.56-37.733" style="fill:none;fill-opacity:.75;fill-rule:evenodd;stroke:#000;stroke-width:3;stroke-linecap:butt;stroke-linejoin:miter;stroke-miterlimit:4;stroke-dasharray:none;stroke-opacity:1" transform="translate(142 -456)"/><path style="fill:#5ab532;fill-opacity:1;fill-rule:evenodd;stroke:#000;stroke-width:3;stroke-linecap:butt;stroke-linejoin:miter;stroke-miterlimit:4;stroke-dasharray:none;stroke-opacity:1" d="M304.314 516.607c-1.345 74.873-2.207 151.205-23.124 214.893l47.555-.357c-18.273-63.717-20.344-139.47-24.431-214.536z" transform="translate(142 -456)"/></g><g><path d="M159.574 18.5c-15.07 13.232-29.514 23.461-42.625 46.49L104.12 50.34C87.616 69.208 81.557 85.051 76.9 101.944L62.782 89.887c-12.766 21.138-20.228 33.174-18.769 52.661l-12.55-13.387c-10.212 147.97 130.473 98.156 130.173 81.902 37.146 29.886 122.585 46.674 122.717-84.984l-17.174 13.905c.537-20.48-6.472-40.66-14.145-52.93l-16.43 12.605c-5.123-23.58-14.825-36.012-23.887-47.777L200.14 64.46c-8.923-21.452-25.941-32.11-40.565-45.96z" style="fill:#5ab532;fill-opacity:1;fill-rule:evenodd;stroke:#000;stroke-width:3;stroke-linecap:butt;stroke-linejoin:miter;stroke-miterlimit:4;stroke-dasharray:none;stroke-opacity:1"/><path d="M31.856 130.64c42.489 46.89 87.082 53.805 130.8 77.341 51.666-24.762 75.873-42.506 108.396-71.371" style="fill:none;fill-opacity:.75;fill-rule:evenodd;stroke:#000;stroke-width:3;stroke-linecap:butt;stroke-linejoin:miter;stroke-miterlimit:4;stroke-dasharray:none;stroke-opacity:1"/><path style="fill:none;fill-opacity:.75;fill-rule:evenodd;stroke:#000;stroke-width:3;stroke-linecap:butt;stroke-linejoin:miter;stroke-miterlimit:4;stroke-dasharray:none;stroke-opacity:1" d="M63.553 92.036c33.034 26.937 66.068 42.12 99.103 56.996 29.438-19.78 46.973-27.16 76.411-50.75M104.39 50.808c14.923 19.09 33.781 32.933 58.266 39.274 14.358-9.318 26.441-13.086 50.56-37.733"/><path d="M161.644 60.607C160.3 135.48 159.438 211.812 138.52 275.5l47.555-.357c-18.273-63.717-20.344-139.47-24.431-214.536z" style="fill:#5ab532;fill-opacity:1;fill-rule:evenodd;stroke:#000;stroke-width:3;stroke-linecap:butt;stroke-linejoin:miter;stroke-miterlimit:4;stroke-dasharray:none;stroke-opacity:1"/></g><g style="display:inline"><path style="fill:url(#b);fill-opacity:1" d="M1.5 1.5v458.868c0 166.31 134.315 301.132 300 301.132s300-134.821 300-301.132V1.5H1.5z"/></g><g style="display:inline"><path style="fill:none;fill-opacity:1;stroke:#000;stroke-width:3;stroke-miterlimit:4;stroke-dasharray:none;stroke-opacity:1" d="M1.5 1.5v458.868c0 166.31 134.315 301.132 300 301.132s300-134.821 300-301.132V1.5H1.5z"/></g></svg>
